X:16002
T:Patapan
R:March
C:Bernard de La Monnoye 1720
O:France
Z:Paul Hardy's Xmas Tunebook 2019 (see www.paulhardy.net). Creative Commons cc by-nc-sa licenced.
M:2/2
L:1/8
Q:1/4=120
K:Em
"Em"E2E2 B2B2|A2B2 G2FG|"D"A2F2 "Em"B4|G4 "B7"F4||"B7"F2G2 F2^D2|"Em"E2F2 G4|
EFGA B4|"Am"ABAG "B7"F4|"B7"F2G2 F2^D2|"Em"E2F2 G2 FG|"Am"A2 GA "B7"B4|F4"Em"E4|]
W:Willie, bring your little drum;
W:Robin, bring your flute and come;
W:And be merry while you play,
W:Tu-re-lu-re-lu, Pat-a-pat-a-pan,
W:Come be merry while you play,
W:On this joyous Holiday!
W:
W:Guillaume, prends ton tambourin,
W:Toi, prends ta flûte, Robin;
W:Au son de ces instruments,
W:Turelurelu, patapatapan,
W:Au son de ces instruments,
W:Je dirai Noël gaîment.
% --------------------------------- Q ---------------------------------------
% --------------------------------- R ---------------------------------------

